public/home/dao-it/icons/1inch.svg

<svg width="73" height="73" viewBox="0 0 73 73" fill="none" xmlns="http://www.w3.org/2000/svg">
<circle cx="36.5" cy="36.5" r="36.5" fill="#DFE225"/>
<g clip-path="url(#clip0_2623_178)">
<path fill-rule="evenodd" clip-rule="evenodd" d="M45.8304 19.8012C45.8304 19.8012 47.6273 19.8775 49.5005 20.0842C45.2958 16.7779 41.3068 15.8121 38.0769 15.8121C33.6521 15.8121 30.6513 17.618 30.4312 17.7527H30.4177L31.8193 15.5291C31.8193 15.5291 26.222 14.9945 24.2409 20.9197C23.7378 19.6619 23.2751 17.8291 23.2751 17.8291C23.2751 17.8291 20.3597 20.3807 21.7298 24.6213C18.3786 23.3814 13.59 21.6969 13.4148 21.6654C13.1632 21.634 13.0958 21.7418 13.0958 21.7418C13.0958 21.7418 13.0195 21.8496 13.2396 22.0248C13.6394 22.3437 21.1863 27.9185 22.8394 28.9922C22.48 30.2859 22.48 30.8969 22.8394 31.5123C23.3425 32.3344 23.3739 32.7701 23.3111 33.3855C23.2347 34.001 22.5968 39.2793 22.4441 39.9262C22.3902 40.1912 22.1027 40.7168 21.7972 41.2963C21.348 42.1633 20.8224 43.1381 20.8673 43.5514C20.9437 44.2297 21.8736 47.1451 22.6956 47.473C23.3111 47.6932 24.8204 48.1514 25.8177 48.1514C26.1771 48.1514 26.496 48.075 26.6398 47.9312C27.2552 47.3967 27.4304 47.2844 27.8661 47.2844H27.9739C28.0638 47.2844 28.1491 47.2933 28.248 47.3068C28.3558 47.3158 28.4905 47.3293 28.6208 47.3293C29.1913 47.3293 29.955 47.2215 30.4941 46.7139C30.8669 46.341 31.37 45.9053 31.8417 45.4965C32.3673 45.0383 32.8614 44.607 33.0816 44.3465C33.6161 43.6682 33.9036 42.7248 33.7599 41.7949C33.6521 40.9279 34.1193 40.1732 34.6583 39.4275C35.3366 38.5291 36.5989 36.9074 36.5989 36.9074C39.0741 38.7807 40.6195 41.6197 40.6195 44.7822C40.6195 50.3795 35.732 54.9166 29.6989 54.9166C28.7691 54.9166 27.8706 54.8088 26.9722 54.5976C29.7349 55.5635 32.0753 55.8914 33.9845 55.8914C38.0499 55.8914 40.2062 54.4135 40.2062 54.4135C40.2062 54.4135 39.4515 55.3793 38.2341 56.4933H38.2655C44.9769 55.568 48.2517 50.0246 48.2517 50.0246C48.2517 50.0246 48.0001 51.8215 47.6812 53.0389C56.4005 46.4892 55.1831 38.3404 55.0843 37.6576C55.0843 37.6351 55.0753 37.6262 55.0753 37.6262C55.1202 37.6935 55.4796 38.1293 55.8525 38.592C56.0816 38.875 56.3241 39.1625 56.4993 39.3916C57.9368 24.5764 45.8304 19.8012 45.8304 19.8012ZM31.1993 44.2611C31.0915 44.3599 30.9792 44.4588 30.8804 44.5441C30.7277 44.6879 30.5749 44.8182 30.4312 44.9619C30.1482 45.2135 29.8607 45.465 29.6316 45.7076C29.4878 45.8514 29.2048 45.9277 28.7646 45.9277H28.3693H28.1491H28.0054H27.6864C28.221 45.2135 29.8113 43.5603 30.3503 43.201C30.9972 42.7742 31.3161 42.334 30.9208 41.5793C30.5255 40.8246 29.4878 41.0088 29.4878 41.0088C29.4878 41.0088 30.1032 40.7572 30.6378 40.7572C29.9595 40.582 29.0925 40.7572 28.6972 41.1525C28.4142 41.4176 28.3468 42.1273 28.2794 42.8416C28.248 43.192 28.212 43.5558 28.1581 43.8478C27.9919 44.6789 27.4888 45.1416 26.7116 45.8514C26.6218 45.9412 26.5275 46.0176 26.4286 46.1029C25.9255 46.5746 25.5616 46.7183 25.2786 46.7183C24.6632 46.6105 23.9445 46.4353 23.4503 46.2467C23.0909 45.775 22.5519 44.2297 22.4081 43.5828C22.4845 43.3312 22.7271 42.8596 22.9427 42.4553C23.0325 42.3025 23.1089 42.1498 23.1628 42.0285L23.2077 41.9521L23.2302 41.9207C23.6255 41.166 23.8546 40.7168 23.922 40.3125C24.0657 39.6971 24.5374 35.9326 24.7126 34.3424C25.1843 34.9578 25.8177 35.9641 25.6784 36.6109C26.7206 35.133 25.9614 33.6955 25.6021 33.1295C25.2831 32.559 24.8474 31.4 25.2068 30.1826C25.5661 28.9562 26.8599 25.5826 26.8599 25.5826C26.8599 25.5826 27.2866 26.3373 27.9021 26.198C28.5175 26.0543 33.432 18.6512 33.432 18.6512C33.432 18.6512 34.7661 21.5666 33.3556 23.6779C31.9316 25.8162 30.53 26.207 30.53 26.207C30.53 26.207 32.5021 26.5664 34.3439 25.2412C35.0986 27.0066 35.8218 28.835 35.8577 29.0865C35.8353 29.1314 35.7814 29.2617 35.705 29.4594C35.3007 30.4117 34.29 32.833 34.1732 33.0082C34.0968 33.0846 33.6027 33.2283 33.2433 33.2912C32.6279 33.4664 32.2775 33.5742 32.1382 33.6865C31.8866 33.9066 30.7366 37.0601 30.1976 38.6055C29.5507 38.7807 28.9038 39.14 28.4321 39.8633C28.6837 39.6881 29.4743 39.5803 30.0538 39.5039C30.557 39.4724 32.1023 40.2945 32.4976 41.8353V41.9117C32.5739 42.4822 32.3898 43.0168 32.1023 43.457C31.954 43.5828 31.5722 43.9332 31.1993 44.2611ZM28.6882 43.8793C28.9398 43.5064 28.9712 42.9359 28.9937 42.599C29.0027 42.5002 29.0027 42.4238 29.0161 42.3699C29.0476 42.1183 29.1239 41.6557 29.4114 41.5793C29.6989 41.5029 30.3773 41.6107 30.3773 42.1139C30.3773 42.4328 30.1347 42.5855 29.8741 42.7473C29.7529 42.8236 29.6316 42.9 29.5148 42.9988C29.3486 43.165 29.0745 43.448 28.8904 43.6457C28.787 43.767 28.7107 43.8433 28.6882 43.8793ZM43.0183 37.0197C43.3777 35.1914 43.4136 33.6146 43.3013 32.3074C44.7029 34.1807 45.5698 36.4357 45.8214 38.7807C45.8529 39.0637 46.1404 39.3512 46.4368 39.6476C46.6884 39.8678 46.9714 40.1508 46.9714 40.326C46.9714 41.148 46.895 41.9791 46.7513 42.8012C46.7198 42.9 46.4234 43.0752 46.1808 43.2055L46.1718 43.2279L46.1493 43.2369C45.79 43.4121 45.471 43.5963 45.3947 43.8838C44.604 46.6465 42.9195 49.0857 40.6509 50.8197C43.9931 47.3293 45.6148 41.5793 43.0183 37.0197ZM40.7587 51.1387C43.0902 49.3418 44.887 46.8217 45.6777 43.9871C45.7091 43.8973 45.9068 43.7805 46.0954 43.6592C46.1493 43.6277 46.2032 43.5828 46.2616 43.5603C46.621 43.3851 46.9759 43.165 47.0523 42.882C47.196 42.0599 47.2724 41.193 47.2724 40.3305C47.2724 40.0115 46.9534 39.6836 46.6255 39.3646C46.5806 39.3107 46.5267 39.2568 46.4728 39.1984C46.32 39.0322 46.1538 38.848 46.1538 38.7178C45.8708 36.0988 44.8197 33.6146 43.207 31.5662C42.5062 27.3256 39.703 25.9689 39.5503 25.8926H39.5413C39.5413 25.8926 39.5413 25.9016 39.5503 25.9016C39.6716 26.0767 41.4685 28.7496 40.1972 31.8627C39.0023 34.7197 36.1542 34.6254 35.3546 34.5894C35.2558 34.5805 35.1884 34.5805 35.1704 34.5894C34.8874 34.5894 33.7689 36.0224 32.3673 38.6863C32.1921 38.6099 31.4374 38.4348 30.5704 38.5785C31.2173 36.7816 32.1921 34.2301 32.3673 34.01C32.4212 33.956 32.7851 33.8437 33.0995 33.7584C33.1894 33.7359 33.2657 33.7135 33.3286 33.682C34.007 33.5068 34.3349 33.399 34.4337 33.2553C34.5101 33.1475 34.8605 32.3254 35.2243 31.4584C35.5433 31.4584 36.3743 31.382 36.4507 31.3506C36.5271 31.2742 37.2054 29.5223 37.2054 29.3021C37.2054 29.1269 35.8038 25.632 35.2648 24.3068C35.5163 24.0238 35.7679 23.66 36.0195 23.2646C43.3777 24.0508 49.1277 30.3039 49.1277 37.8867C49.1277 43.6906 45.7226 48.7623 40.7587 51.1387ZM33.0726 20.8074C33.0726 20.8074 33.3915 22.2404 32.5695 23.2152C31.5273 24.4101 30.6288 24.3652 30.6648 24.3652L33.0726 20.8074ZM24.7665 41.2154L24.4835 42.6484C24.4835 42.6484 25.054 42.5721 25.054 43.2189C25.054 43.7221 24.4835 44.4139 24.0118 44.4453C23.5402 44.4767 23.365 43.9107 23.4773 43.5783C23.5851 43.2953 24.7665 41.2154 24.7665 41.2154ZM30.265 29.2123C31.5228 29.4639 31.8866 30.9418 31.1948 31.7324C30.5165 32.4871 28.787 33.5607 27.7898 33.8123C27.5697 34.6344 25.7413 34.284 26.4197 31.656C26.4197 31.656 26.7386 32.9139 27.0665 32.806C27.3855 32.6982 31.0556 26.9437 31.0556 26.9437C31.0556 26.9437 30.5929 28.4666 30.265 29.2123ZM29.9505 29.931L28.0773 33.1295C28.0773 33.1295 29.8068 32.3389 30.4851 31.3326C31.0241 30.4701 29.9505 29.931 29.9505 29.931ZM29.6989 16.7869C26.4691 18.7275 27.1159 23.359 27.1159 23.359C24.1691 18.8578 28.9802 17.0609 29.6361 16.8094C29.663 16.8004 29.6855 16.7869 29.6989 16.7869ZM45.3632 18.6961C40.0085 17.6898 36.554 18.193 34.0788 19.1228C34.0025 18.8398 33.7599 18.2558 33.5443 17.7887C32.812 18.6557 32.0529 19.6844 31.5497 20.3717L31.4958 20.448C30.1257 21.3779 29.5552 22.2764 29.5552 22.2764C30.3458 19.581 32.6458 17.5641 35.4489 17.0744C36.2396 16.9307 37.1021 16.8543 38.032 16.8543C40.5072 16.8992 42.9823 17.5012 45.3632 18.6961ZM46.5132 25.0795C51.5759 28.4217 53.8759 32.1232 55.4976 36.4717C55.4212 31.8717 53.8759 27.9185 50.8976 24.7605L50.8212 24.6842C48.2023 21.9215 44.348 20.6187 40.5476 21.1578C39.1146 21.333 37.6771 21.6295 36.5585 21.9799C36.3833 22.0113 36.1991 22.0562 36.0239 22.1236H36.1003C36.3788 22.1012 41.6257 21.8496 46.5132 25.0795ZM49.3163 50.1234C50.0306 49.4092 50.6505 48.6455 51.1896 47.9312C54.2802 43.6142 53.8534 37.6891 50.2911 33.7359C50.0081 33.417 49.6757 33.0576 49.3613 32.7297C49.523 33.0666 53.9478 41.2154 49.3163 50.1234ZM22.8169 20.3043C22.6732 20.8209 21.4693 25.4433 25.5571 25.5961C23.1134 24.1182 22.8304 20.3178 22.8304 20.2818C22.8304 20.2818 22.8304 20.2953 22.8169 20.3043ZM24.5464 27.8512C24.798 27.3795 24.5779 27.0605 24.3712 26.8853L24.2948 26.809C23.8681 26.5889 21.1728 25.5826 18.5089 24.6527C20.8404 26.198 23.4279 27.7074 23.8636 27.9185C24.196 28.0713 24.4072 28.1027 24.5464 27.8512Z" fill="#1B314F"/>
<path d="M34.735 26.1755C34.6047 25.8566 34.4699 25.5422 34.3396 25.2232C32.992 26.198 31.568 26.2654 30.9121 26.2295C31.5904 26.3957 33.0818 26.6248 34.735 26.1755Z" fill="#1B314F" fill-opacity="0.3"/>
<path d="M36.2045 22.1236C36.1506 22.1236 36.0967 22.1236 36.0518 22.1236C36.0428 22.1236 36.0428 22.1236 36.0293 22.1326H36.1057C36.1057 22.1326 36.1506 22.1236 36.2045 22.1236Z" fill="#1B314F" fill-opacity="0.3"/>
<path d="M38.473 23.7453C37.6824 23.5161 36.8648 23.3634 36.0203 23.2646C35.7687 23.6599 35.5172 24.0193 35.2656 24.3068C35.4094 24.6661 35.625 25.1962 35.8586 25.7757C36.7525 25.3669 37.651 24.7201 38.473 23.7453Z" fill="#1B314F" fill-opacity="0.3"/>
<path d="M35.4582 33.637C34.2004 33.637 32.5113 34.4591 32.5113 34.4591L30.8447 38.5335C31.5904 38.4662 32.1924 38.6099 32.3586 38.6773C33.7602 36.0134 34.8787 34.5804 35.1617 34.5804C35.1932 34.5714 35.2605 34.5714 35.3459 34.5804C36.1455 34.6119 38.9936 34.7107 40.1885 31.8537C41.4148 28.8394 39.7932 26.2564 39.5641 25.915C41.033 30.8519 37.7178 33.6011 35.4582 33.637Z" fill="#1B314F" fill-opacity="0.3"/>
<path d="M45.3951 43.8793C45.4715 43.5963 45.7904 43.4076 46.1498 43.2324L46.1723 43.2234L46.1813 43.201C46.4238 43.0572 46.7158 42.8955 46.7518 42.7967C46.8955 41.9746 46.9719 41.1435 46.9719 40.3215C46.9719 40.1463 46.6889 39.8498 46.4373 39.6432C46.1543 39.3601 45.8668 39.0726 45.8219 38.7762C45.5703 36.4447 44.7168 34.1762 43.3018 32.3029C43.4096 33.5967 43.3781 35.1734 43.0188 37.0152C45.6152 41.5838 43.9936 47.3248 40.6514 50.8197C42.9199 49.0902 44.6045 46.651 45.3951 43.8793Z" fill="#1B314F" fill-opacity="0.3"/>
<path d="M48.7459 37.1185C47.4521 29.7917 39.9816 26.0542 39.5459 25.8701C39.5459 25.879 39.5459 25.879 39.5459 25.8925C39.7885 26.0138 42.3939 27.339 43.1486 31.3056C44.932 33.3855 46.0506 35.9954 46.3561 38.7447C46.3561 38.9199 46.6076 39.1714 46.8592 39.3915C47.1781 39.7105 47.5061 40.0384 47.5061 40.3574C47.5061 41.2244 47.4297 42.0869 47.2859 42.9089C47.2096 43.1919 46.8592 43.3806 46.4953 43.5872C46.2752 43.731 45.9607 43.9062 45.9248 44.014C45.1926 46.597 43.6697 48.9195 41.6213 50.6759C45.0174 48.7578 47.5689 45.5369 48.6111 41.705C48.9525 40.2406 49.0199 38.6953 48.7459 37.1185Z" fill="#1B314F" fill-opacity="0.3"/>
<path d="M32.4666 41.8398C32.0713 40.2945 30.526 39.4724 30.0229 39.5084C29.4434 39.5848 28.6527 39.6836 28.4012 39.8678C28.8729 39.1445 29.5197 38.7851 30.1666 38.6099C30.3508 38.0844 30.6068 37.3611 30.8674 36.6379C30.252 36.9658 28.0867 38.1158 27.898 38.2461C27.6779 38.3898 26.9232 39.8902 26.3527 41.476C26.0338 40.4697 25.3105 39.8543 25.2791 39.8228C25.3105 39.998 26.0697 42.9898 25.8137 43.8883C25.5621 44.8316 23.9854 45.6537 23.9854 45.6537L26.3527 46.1793C26.3752 46.1568 26.3977 46.1478 26.4201 46.1254C26.5189 46.0355 26.6043 45.9502 26.7031 45.8738C27.4803 45.1596 27.9834 44.7014 28.1496 43.8703C28.2035 43.5738 28.2484 43.2144 28.2709 42.864C28.3383 42.1498 28.4012 41.44 28.6887 41.175C29.084 40.7797 29.9465 40.6045 30.6293 40.7797C30.4316 40.7797 30.225 40.8111 30.0498 40.856C30.6652 40.865 31.4828 41.0986 31.4648 42.325C31.4648 43.2683 30.4227 43.3312 29.385 44.1982C29.1648 44.3824 28.9133 44.6025 28.6707 44.8316C28.2664 45.2584 27.9025 45.6762 27.6959 45.9592H28.0148H28.1586H28.3787H28.774C29.2008 45.9592 29.4883 45.8828 29.641 45.739C29.8701 45.5099 30.1576 45.2584 30.4406 44.9933C30.5934 44.8496 30.7461 44.7193 30.8898 44.5756C30.9887 44.4857 31.0965 44.3914 31.2088 44.2926C31.5816 43.9512 31.9635 43.6142 32.0848 43.484C32.3678 43.0437 32.5564 42.5092 32.4801 41.9387V41.8398H32.4666Z" fill="#1B314F" fill-opacity="0.3"/>
</g>
<defs>
<clipPath id="clip0_2623_178">
<rect width="46" height="46" fill="white" transform="translate(14 13)"/>
</clipPath>
</defs>
</svg>

<svg viewBox="0 0 73 73" fill="none" xmlns="http://www.w3.org/2000/svg"><circle cx="36.5" cy="36.5" r="36.5" fill="#DFE225"/><g clip-path="url(#a)" fill="#1B314F"><path fill-rule="evenodd" clip-rule="evenodd" d="M45.83 19.801s1.797.077 3.67.283c-4.204-3.306-8.193-4.272-11.423-4.272-4.425 0-7.426 1.806-7.646 1.94h-.013l1.401-2.223s-5.597-.534-7.578 5.39c-.503-1.257-.966-3.09-.966-3.09s-2.915 2.552-1.545 6.792c-3.351-1.24-8.14-2.924-8.315-2.956-.252-.031-.32.077-.32.077s-.075.108.145.283c.4.319 7.946 5.894 9.6 6.967-.36 1.294-.36 1.905 0 2.52.503.822.534 1.258.471 1.874-.076.615-.714 5.893-.867 6.54-.054.265-.341.79-.647 1.37-.449.867-.975 1.842-.93 2.255.077.679 1.007 3.594 1.829 3.922.615.22 2.124.678 3.122.678.36 0 .678-.076.822-.22.615-.534.79-.647 1.226-.647h.108c.09 0 .175.01.274.023.108.009.242.022.373.022.57 0 1.334-.108 1.873-.615.373-.373.876-.809 1.348-1.218.525-.458 1.02-.889 1.24-1.15a3.36 3.36 0 0 0 .678-2.551c-.108-.867.36-1.622.898-2.367.679-.899 1.94-2.52 1.94-2.52 2.476 1.873 4.022 4.712 4.022 7.874 0 5.598-4.888 10.135-10.921 10.135-.93 0-1.828-.108-2.727-.32 2.763.966 5.103 1.294 7.012 1.294 4.066 0 6.222-1.477 6.222-1.477s-.755.965-1.972 2.08h.032c6.71-.926 9.986-6.47 9.986-6.47s-.252 1.797-.57 3.015c8.718-6.55 7.501-14.699 7.402-15.381 0-.023-.009-.032-.009-.032.045.068.405.503.777.966.23.283.472.57.647.8 1.438-14.816-10.669-19.59-10.669-19.59M31.2 44.261c-.108.099-.22.198-.32.283-.152.144-.305.274-.449.418-.283.252-.57.503-.8.746-.143.143-.426.22-.866.22h-1.079c.535-.714 2.125-2.368 2.664-2.727.647-.427.966-.867.57-1.622-.395-.754-1.432-.57-1.432-.57s.615-.252 1.15-.252c-.679-.175-1.546 0-1.94.396-.284.265-.351.974-.419 1.689a12 12 0 0 1-.12 1.006c-.167.83-.67 1.294-1.447 2.003-.09.09-.184.167-.283.252-.503.472-.867.615-1.15.615-.616-.108-1.334-.283-1.829-.471-.36-.472-.898-2.017-1.042-2.664.076-.252.32-.723.535-1.128.09-.152.166-.305.22-.426l.045-.077.022-.031c.395-.755.625-1.204.692-1.608.144-.616.615-4.38.79-5.97.472.615 1.106 1.621.966 2.268 1.043-1.478.283-2.915-.076-3.481-.319-.571-.755-1.73-.395-2.947.36-1.227 1.653-4.6 1.653-4.6s.427.754 1.042.615c.615-.144 5.53-7.547 5.53-7.547s1.334 2.916-.076 5.027c-1.424 2.138-2.826 2.529-2.826 2.529s1.972.36 3.814-.966c.755 1.766 1.478 3.594 1.514 3.846a6 6 0 0 0-.153.372c-.404.953-1.415 3.374-1.532 3.55-.076.076-.57.22-.93.282-.615.175-.965.283-1.105.396-.251.22-1.401 3.373-1.94 4.919-.647.175-1.294.534-1.766 1.257.252-.175 1.042-.283 1.622-.36.503-.03 2.048.791 2.444 2.332v.077c.076.57-.108 1.105-.396 1.545-.148.126-.53.476-.903.804m-2.512-.382c.252-.373.283-.943.306-1.28.009-.099.009-.175.022-.23.032-.25.108-.713.395-.79.288-.076.966.032.966.535 0 .319-.242.472-.503.633a3 3 0 0 0-.36.252c-.165.166-.44.449-.624.647-.103.121-.18.197-.202.233m14.33-6.86c.36-1.828.396-3.404.283-4.712 1.402 1.874 2.269 4.129 2.52 6.474.032.283.32.57.616.867.251.22.534.503.534.678 0 .822-.076 1.653-.22 2.475-.031.099-.328.274-.57.404l-.01.023-.022.009c-.359.175-.678.36-.754.647a13.4 13.4 0 0 1-4.744 6.936c3.342-3.49 4.964-9.24 2.367-13.8m-2.26 14.12c2.332-1.797 4.129-4.317 4.92-7.152.031-.09.229-.206.417-.328.054-.031.108-.076.167-.099.359-.175.714-.395.79-.678.144-.822.22-1.689.22-2.551 0-.32-.319-.647-.646-.966-.045-.054-.1-.108-.153-.167-.153-.166-.32-.35-.32-.48-.282-2.62-1.333-5.103-2.946-7.152-.7-4.24-3.504-5.597-3.657-5.673h-.009s0 .009.01.009c.12.175 1.917 2.848.646 5.96-1.195 2.858-4.043 2.763-4.842 2.727a.6.6 0 0 0-.185 0c-.283 0-1.401 1.433-2.803 4.097-.175-.076-.93-.251-1.797-.108.647-1.796 1.622-4.348 1.797-4.568.054-.054.418-.166.733-.252.09-.022.166-.044.229-.076.678-.175 1.006-.283 1.105-.427.076-.108.427-.93.79-1.797.32 0 1.15-.076 1.227-.107.076-.077.754-1.829.754-2.049 0-.175-1.401-3.67-1.94-4.995.251-.283.503-.647.755-1.042 7.358.786 13.108 7.039 13.108 14.622 0 5.804-3.405 10.875-8.37 13.252m-7.685-30.332s.319 1.433-.504 2.408c-1.042 1.195-1.94 1.15-1.904 1.15zm-8.306 20.408-.284 1.433s.571-.076.571.57c0 .504-.57 1.196-1.042 1.227s-.647-.534-.535-.867c.108-.283 1.29-2.363 1.29-2.363m5.498-12.003c1.258.252 1.622 1.73.93 2.52-.678.755-2.408 1.829-3.405 2.08-.22.822-2.049.472-1.37-2.156 0 0 .319 1.258.646 1.15.32-.108 3.99-5.862 3.99-5.862s-.463 1.523-.791 2.268m-.314.719-1.874 3.198s1.73-.79 2.408-1.796c.54-.863-.534-1.402-.534-1.402m-.252-13.144c-3.23 1.94-2.583 6.572-2.583 6.572-2.947-4.501 1.864-6.298 2.52-6.55.027-.009.05-.022.063-.022m15.664 1.91c-5.355-1.007-8.809-.504-11.284.426-.077-.283-.32-.867-.535-1.334-.732.867-1.491 1.895-1.994 2.583l-.054.076c-1.37.93-1.94 1.828-1.94 1.828.79-2.695 3.09-4.712 5.893-5.202.79-.143 1.653-.22 2.583-.22 2.475.045 4.95.647 7.331 1.842m1.15 6.383c5.063 3.342 7.363 7.043 8.985 11.392-.077-4.6-1.622-8.553-4.6-11.711l-.077-.077c-2.619-2.762-6.473-4.065-10.273-3.526-1.433.175-2.87.471-3.99.822a3 3 0 0 0-.534.144h.076c.279-.023 5.526-.274 10.413 2.956m2.803 25.043a21 21 0 0 0 1.874-2.192c3.09-4.317 2.663-10.242-.899-14.195a37 37 0 0 0-.93-1.006c.162.337 4.587 8.485-.045 17.393m-26.5-29.819c-.143.517-1.347 5.14 2.741 5.292-2.444-1.478-2.727-5.278-2.727-5.314 0 0 0 .013-.013.022m1.73 7.547c.252-.471.032-.79-.175-.966l-.076-.076c-.427-.22-3.122-1.226-5.786-2.156 2.331 1.545 4.919 3.054 5.355 3.266.332.152.543.184.682-.068"/><path d="M34.735 26.176c-.13-.32-.265-.634-.395-.953a5.43 5.43 0 0 1-3.428 1.007c.678.166 2.17.395 3.823-.055m1.47-4.051h-.153c-.01 0-.01 0-.023.009h.077s.045-.01.099-.01m2.268 1.622a15 15 0 0 0-2.453-.48 9 9 0 0 1-.754 1.042c.143.36.359.89.593 1.469.893-.41 1.792-1.056 2.614-2.03m-3.015 9.891c-1.258 0-2.947.822-2.947.822l-1.666 4.074c.745-.067 1.347.077 1.514.144 1.401-2.664 2.52-4.097 2.803-4.097a.6.6 0 0 1 .184 0c.8.032 3.648.13 4.843-2.726 1.226-3.015-.396-5.598-.625-5.939 1.469 4.937-1.846 7.686-4.106 7.722m9.937 10.243c.076-.284.395-.472.755-.648l.022-.009.01-.022c.242-.144.534-.306.57-.404.143-.822.22-1.653.22-2.475 0-.176-.283-.472-.535-.679-.283-.283-.57-.57-.615-.867-.252-2.331-1.105-4.6-2.52-6.473.108 1.294.076 2.87-.283 4.712 2.596 4.569.975 10.31-2.368 13.805a13.37 13.37 0 0 0 4.744-6.94" fill-opacity=".3"/><path d="M48.746 37.119c-1.294-7.327-8.764-11.065-9.2-11.249v.022c.242.122 2.848 1.447 3.603 5.414a13.8 13.8 0 0 1 3.207 7.439c0 .175.252.426.503.647.32.319.647.646.647.965 0 .867-.076 1.73-.22 2.552-.076.283-.427.472-.79.678-.22.144-.535.32-.571.427-.732 2.583-2.255 4.905-4.304 6.662a14.78 14.78 0 0 0 6.99-8.971c.342-1.464.409-3.01.135-4.587M32.467 41.84c-.396-1.546-1.941-2.368-2.444-2.332-.58.077-1.37.176-1.622.36.472-.724 1.119-1.083 1.766-1.258.184-.526.44-1.249.7-1.972-.615.328-2.78 1.478-2.969 1.608-.22.144-.975 1.644-1.545 3.23-.32-1.006-1.043-1.622-1.074-1.653.032.175.79 3.167.535 4.065-.252.944-1.829 1.766-1.829 1.766l2.368.525c.022-.022.045-.031.067-.054.099-.09.184-.175.283-.251.777-.714 1.28-1.173 1.447-2.004.053-.296.098-.656.12-1.006.068-.714.131-1.424.419-1.689.395-.395 1.258-.57 1.94-.395-.197 0-.404.031-.58.076.616.009 1.434.243 1.416 1.469 0 .943-1.042 1.006-2.08 1.873a16 16 0 0 0-.714.634c-.405.426-.768.844-.975 1.127h1.078q.639-.002.867-.22c.23-.23.517-.48.8-.746.152-.143.305-.274.449-.417q.149-.136.319-.283c.373-.342.755-.679.876-.809.283-.44.471-.975.395-1.545v-.1z" fill-opacity=".3"/></g><defs><clipPath id="a"><path fill="#fff" d="M14 13h46v46H14z"/></clipPath></defs></svg>
